X:1
T:los set gotxs
T:Los Set Gotxs
L:1/8
M:2/4
K:C
V:1 treble nm="Piano" snm="Pno."
V:1
 c2 BA | B2 c2 | d2 cB | A4 | (3:2:5BAG G z2 | E2 D2 | (3:2:5EDE F z2 |1 E2 z2 :|2 E2 D2 |: %9
w: Los set _|gotxs re-|comp- ta- *|rem|et _ _ de-|vo- ta-|ment _ _ xan|tant||
w: Hu- mil- *|ment sa-|lu- da- *|rem|la _ _ dol-|ça ver-|ge _ _ Ma-||ri- a|
[M:3/4] G3 G A2 ||[M:2/4] F2 E2 | FE FG | A2 E2 ||[M:3/4] G3 G A2 ||[M:2/4] F2 ED | ED EC | %16
w: A- ve Ma-|ri- a,|gra- * ci- a|ple- na|Do- mi- nus|te- * cum,|Vir- * go se-|
w: |||||||
 D2 D2 :| %17
w: re- na|
w: |

